X:1
T:St. Vincent, 76.76.88
T:St. Vincent, 76.76.88
T:Henry John Gauntlett (1805-1876)
T:Public Domain Courtesy of the Cyber Hymnal™
C:Henry John Gauntlett (1805-1876)
Z:Public Domain
Z:Courtesy of the Cyber Hymnal™
%%score ( 1 2 ) ( 3 4 )
L:1/8
Q:1/4=110
M:4/4
K:F
V:1 treble 
V:2 treble 
V:3 bass 
V:4 bass 
V:1
 C4 | [CF]2 [DF]2 [EG]2 [FA]2 | B4 [FA]2 [Fc]2 | [FG]2 [FA]2 B3 z B x | [FA]6 [CF]2 | %5
 [FA]2 [Fc]2 [FG]2 [EA]2 | F4 [CE]2 [Cc]2 | [CG]2 [CA]2 [CF]2 [B,F]2 | [CE]6 C2 | %9
 [CF]2 [EG]2 [FA]2 [FB]2 | [GB]2 [FA]2 [EG]2 [EG]2 | [Fc]2 [EB]2 [FA]2 (BG) | [FG]4 [EG]4 | F4 |] %14
V:2
 C4 | x8 | (F2 G2) x4 | x4 F2 E2 x2 | x8 | x8 | (F2 =B,2) x4 | x8 | x6 C2 | x8 | x8 | x6 F2 | x8 | %13
 F4 |] %14
V:3
 [F,A,]4 | [F,A,]2 [D,A,]2 [C,C]2 [F,C]2 | ([D,D]2 [E,C]2) [F,C]2 [A,C]2 | [B,D]2 [A,C]2 D2 z x3 | %4
 [F,C]6 [F,A,]2 | [F,C]2 [A,,C]2 [C,B,]2 [C,B,]2 | ([D,A,]2 [G,,G,]2) [C,G,]2 [C,E,]2 | %7
 [E,G,]2 F,2 [D,A,]2 [G,,G,]2 | [C,G,]6 [C,E,]2 | A,2 [G,B,]2 [F,C]2 [D,D]2 | %10
 [E,C]2 [F,C]2 [C,C]2 [B,,G,]2 | [A,,A,]2 [C,G,]2 [D,F,]2 [B,,D]2 | (G,2 A,2) [C,B,]4 | [F,A,]4 |] %14
V:4
 x4 | x8 | x8 | x4 G,3 B,2 G, | x8 | x8 | x8 | x2 F,2 x4 | x8 | A,2 x6 | x8 | x8 | C,4 x4 | x4 |] %14

